X:1
T:Title
%%score ( 1 2 ) { 3 | 4 }
L:1/8
Q:1/4=105
M:6/8
K:A
V:1 treble nm="Grand Piano, Soprano"
V:2 treble 
V:3 bass nm="Choir Pad, Madeira, 76.76 D"
V:4 bass 
V:1
 E [Ec]2 [Ec]cB | [EA] [FA]2- [FA] [FA]2 | [DF] [CE]2 [CA]AB | [Ec] [EB]2- [EB]2- [EB]/ z/ | %4
w: By~D.~B.~Way,~1879 * * * *||||
 E [Ec]2 [Ec]cB | [FA] [FA]2- [FA] [DF]2 | [DF] [CE]2 [CA] [Ec]2 | [DB] [CA]2- [CA]2- [CA]/ z/ | %8
w: ||||
 [EA] [EB]2 [Ec]dc | [EB] [Ec]2- [Ec] [Ee]2 | [Ee] [Ee]2 [Ec]cB | [EA] [EB]2- [EB]2- [EB]/ z/ | %12
w: ||||
 E [Ec]2 [Ec]cB | [EA] [FA]2- [FA] [DF]2 | [DF] [CE]2 [EA] [Ac]2 | [GB] A2- A3- | A3 z3 |] %17
w: |||||
V:2
 z3 z E2 | x6 | z3 z E2 | x6 | z3 z E2 | x6 | x6 | x6 | z3 z E2 | x6 | z3 z E2 | x6 | z3 z E2 | %13
 x6 | x6 | x6 | x6 |] %17
V:3
 E, A,2 A,A,G, | A, A,2- A, A,2 | A, A,2 A,A,G, | A, G,2- G,2- G,/ z/ | G, A,2 A,A,G, | %5
 A, A,2- A, A,2 | A, A,2 A, A,2 | G, A,2- A,2- A,/ z/ | A, G,2 A,B,A, | %9
 G, A,2- A,/ z/[K:treble] C2 | C C2 A,A,[K:bass]G, | A, G,2- G,2- G,/ z/ | G, A,2 A,A,G, | %13
 A, A,2- A, A,2 | A, A,2[K:treble] C E2 | D C2- C3- | C3 z3 |] %17
V:4
 z A,,2 A,,A,,B,, | C, D,2- D, D,2 | D, A,,2 A,,C,B,, | A,, E,2- E,2- E,/ z/ | E, A,,2 A,,A,,B,, | %5
 C, D,2- D, D,2 | D, E,2 E, E,2 | E, A,,2- A,,2- A,,/ z/ | C, E,2 E, E,2 | .E,3 z A,2 | %10
 A, A,2 z A,,B,, | C, E,2- E,2- E,/ z/ | E, A,,2 A,,A,,B,, | C, D,2- D, D,2 | D, E,2 E, E,2 | %15
 E, A,,2- A,,3- | A,,3 z3 |] %17

